svg/phone-icon.svg

<svg width="13" height="13" viewBox="0 0 13 13" fill="none" xmlns="http://www.w3.org/2000/svg">
<path d="M11.9569 8.53301C11.161 8.53301 10.3795 8.40853 9.63892 8.1638C9.26971 8.03789 8.84934 8.1356 8.60847 8.38104L7.14675 9.48448C5.45157 8.57959 4.40737 7.53573 3.51484 5.85328L4.58582 4.42965C4.86407 4.15177 4.96387 3.74586 4.84429 3.365C4.59851 2.62055 4.47366 1.83943 4.47366 1.04318C4.47369 0.467966 4.00573 0 3.43054 0H1.04311C0.467966 0 0 0.467966 0 1.04311C0 7.63625 5.36379 13 11.9569 13C12.5321 13 13 12.532 13 11.9569V9.57613C13 9.00098 12.532 8.53301 11.9569 8.53301ZM12.2778 11.9569C12.2778 12.1339 12.1339 12.2778 11.9569 12.2778C5.76191 12.2778 0.722245 7.23809 0.722245 1.04315C0.722245 0.866125 0.866125 0.722245 1.04315 0.722245H3.43058C3.6076 0.722245 3.75148 0.866125 3.75148 1.04315C3.75148 1.91665 3.88866 2.77394 4.15702 3.5861C4.1944 3.70602 4.16406 3.83013 4.04276 3.9564L2.80143 5.60039C2.71822 5.71076 2.70515 5.85853 2.76758 5.98159C3.78073 7.97299 5.01184 9.2041 7.01733 10.2317C7.13934 10.2955 7.28887 10.2822 7.39961 10.1986L9.08138 8.92447C9.16635 8.83949 9.29368 8.80916 9.40865 8.84829C10.2264 9.11842 11.0837 9.25525 11.9569 9.25525C12.1339 9.25525 12.2778 9.39914 12.2778 9.57616V11.9569Z" fill="#FFD300"/>
</svg>

<svg xmlns="http://www.w3.org/2000/svg" width="13" height="13" fill="none" viewBox="0 0 13 13"><path fill="#FFD300" d="M11.96 8.53c-.8 0-1.58-.12-2.32-.37a1.02 1.02 0 0 0-1.03.22l-1.46 1.1A8.08 8.08 0 0 1 3.5 5.85L4.6 4.43c.27-.28.37-.68.25-1.06a7.4 7.4 0 0 1-.37-2.33C4.47.47 4.01 0 3.43 0H1.04C.47 0 0 .47 0 1.04 0 7.64 5.36 13 11.96 13c.57 0 1.04-.47 1.04-1.04V9.58c0-.58-.47-1.05-1.04-1.05Zm.32 3.43c0 .17-.15.32-.32.32C5.76 12.28.72 7.24.72 1.04c0-.17.15-.32.32-.32h2.4c.17 0 .31.15.31.32 0 .88.14 1.73.4 2.55.04.12.01.24-.1.37L2.8 5.6a.36.36 0 0 0-.03.38 8.96 8.96 0 0 0 4.25 4.25c.12.07.27.05.38-.03l1.68-1.28a.32.32 0 0 1 .33-.07c.82.27 1.67.4 2.55.4.17 0 .32.15.32.33v2.38Z"/></svg>
